X: 32
T:20th of May,The. WCl.32
M:C|
L:1/8
Q:180
S:William Clarke MS,Lincoln,1770.
R:Hornpipe
O:Lincoln
A:England
Z:vmp.Barry Callaghan
K:Bb
BFDF BdcB|cAFA cedc|dafe gedc|dfAc BAGF|!
BFDF BdcB|cAFA cedc|dafe dgfe|dcBA B4::!
BABc BABc|Bcde f2F2|GFGA GFGA|GABc d2D2|!
EDEF EDEF|EFGA B2B,2|C2 f2f2 ed|dcBA B4:||
